img/icon/task.svg

<svg width="24" height="24" fill="none" xmlns="http://www.w3.org/2000/svg"><path d="M9 5V3a2 2 0 0 1 2-2h7a2 2 0 0 1 2 2v11.043a1 1 0 0 1-1.479.878L15 13M4 7v10.996a.998.998 0 0 0 1.474.881L9.5 16.681l4.026 2.196A.998.998 0 0 0 15 17.996V7a2 2 0 0 0-2-2H6a2 2 0 0 0-2 2z" stroke="#848E9F" stroke-width="1.5" stroke-linecap="round" stroke-linejoin="round"/></svg>

<svg width="24" height="24" viewBox="0 0 24 24" fill="none" xmlns="http://www.w3.org/2000/svg">
<path d="M9 5V3C9 1.895 9.895 1 11 1H18C19.105 1 20 1.895 20 3V14.043C20 14.802 19.188 15.284 18.521 14.921L15 13M4 7V17.996C4 18.755 4.807 19.24 5.474 18.877C7.103 17.988 9.5 16.681 9.5 16.681C9.5 16.681 11.897 17.989 13.526 18.877C14.193 19.24 15 18.755 15 17.996V7C15 5.895 14.105 5 13 5H6C4.896 5 4 5.895 4 7Z" stroke="#848E9F" stroke-width="1.5" stroke-linecap="round" stroke-linejoin="round"/>
</svg>
